!!!COM: Vivaldi, Antonio Lucio
!!!CDT: 1678/03/04-1741/08/28
!!!OPR: 12 sonatas for two violins and basso continuo
!!!OTL: Sonata in F major, op. @{OPS}, no. @{ONM} (@{SCT})
!!!OPS: 1
!!!ONM: 5
!!!OMV: 3. Corrente
!!!SCT: RV 69
!!!SCA: Antonio Vivaldi: Thematisch-systematisches Verzeichnis seiner Werke (Ryom-Verzeichnis)
!!!OMD: Allegro
!!!key: F
**kern	**dynam	**fb	**kern	**dynam	**kern	**dynam
*part3	*part4	*part4	*part2	*part2	*part1	*part1
*staff3	*	*	*staff2	*	*staff1	*
*I"Violoncello\nContinuo	*	*	*I"Violin 2	*	*I"Violin 1	*
*>[A,A,B,B]	*>[A,A,B,B]	*>[A,A,B,B]	*>[A,A,B,B]	*>[A,A,B,B]	*>[A,A,B,B]	*>[A,A,B,B]
*>norep[A,B]	*>norep[A,B]	*>norep[A,B]	*>norep[A,B]	*>norep[A,B]	*>norep[A,B]	*>norep[A,B]
*>A	*>A	*>A	*>A	*>A	*>A	*>A
*clefF4	*	*	*clefG2	*	*clefG2	*
*k[b-]	*	*	*k[b-]	*	*k[b-]	*
*F:	*	*	*F:	*	*F:	*
*M3/4	*	*	*M3/4	*	*M3/4	*
*MM192	*	*	*MM192	*	*MM192	*
2.r	.	.	2.r	.	8r	.
.	.	.	.	.	8ff\	.
.	.	.	.	.	8ff\L	.
.	.	.	.	.	8gg\	.
.	.	.	.	.	8aa\	.
.	.	.	.	.	8aa\J	.
=1	=1	=1	=1	=1	=1	=1
2.r	.	.	2.r	.	8aa\L	.
.	.	.	.	.	8gg\	.
.	.	.	.	.	8gg\	.
.	.	.	.	.	8aa\	.
.	.	.	.	.	8bb-y\	.
.	.	.	.	.	8ccc\J	.
=2	=2	=2	=2	=2	=2	=2
2.r	.	.	8r	.	4ff\	.
.	.	.	8cc\	.	.	.
.	.	.	8cc\L	.	[2ccc\	.
.	.	.	8dd\	.	.	.
.	.	.	8ee\	.	.	.
.	.	.	8ee\J	.	.	.
=3	=3	=3	=3	=3	=3	=3
2.r	.	.	8ee\L	.	4ccc\]	.
.	.	.	8dd\	.	.	.
.	.	.	8dd\	.	2bbn\	.
.	.	.	8ee\	.	.	.
.	.	.	8ff\	.	.	.
.	.	.	8gg\J	.	.	.
=4	=4	=4	=4	=4	=4	=4
8r	.	.	4cc\	.	2ccc\	.
8F\	.	.	.	.	.	.
8F\L	.	.	[2ff\	.	.	.
8G\	.	.	.	.	.	.
8A\	.	6	.	.	4aa\	.
8A\J	.	.	.	.	.	.
=5	=5	=5	=5	=5	=5	=5
8A\L	.	4 2	4ff\]	.	2bb-X\	.
8G\	.	.	.	.	.	.
8G\	.	6	2ee\	.	.	.
8A\	.	.	.	.	.	.
8B-y\	.	6 4	.	.	4gg\	.
8c\J	.	.	.	.	.	.
=6	=6	=6	=6	=6	=6	=6
4F\	.	.	4ff\	.	4aa\	.
[2f\	.	6	8dd\L	.	4r	.
.	.	.	8cc\	.	.	.
.	.	.	8b-y\	.	4ddd\	.
.	.	.	8a\J	.	.	.
=7	=7	=7	=7	=7	=7	=7
4f\]	.	4 2	4g/	.	4bb-y\	.
[2e\	.	6	8cc/L	.	4g/	.
.	.	.	8b-y/	.	.	.
.	.	.	8a/	.	4ccc\	.
.	.	.	8g/J	.	.	.
!!LO:LB:g=original
=8	=8	=8	=8	=8	=8	=8
4e\]	.	4 2	4f/	.	4aa\	.
[2d\	.	6	8b-y/L	.	4f/	.
.	.	.	8a/	.	.	.
.	.	.	8g/	.	4bb-y\	.
.	.	.	8f/J	.	.	.
=9	=9	=9	=9	=9	=9	=9
4d\]	.	4 2	4e/	.	4gg\	.
[2c\	.	6	8a/L	.	4e/	.
.	.	.	8g/	.	.	.
.	.	.	8f/	.	4aa\	.
.	.	.	8e/J	.	.	.
=10	=10	=10	=10	=10	=10	=10
4c\]	.	4 2	4d/	.	4ff\	.
[2B-y\	.	6	8g/L	.	4d/	.
.	.	.	8f/	.	.	.
.	.	.	8e/	.	4gg\	.
.	.	.	8d/J	.	.	.
=11	=11	=11	=11	=11	=11	=11
4B-y\]	.	4 2	4c/	.	4ee\	.
2A\	.	6	8f/L	.	4c/	.
.	.	.	8e/	.	.	.
.	.	.	8d/	.	[4ff\	.
.	.	.	8c/J	.	.	.
=12	=12	=12	=12	=12	=12	=12
2B-y\	.	6 5	4d/	.	4ff\]	.
.	.	.	4b-y\	.	4dd\	.
4G\	.	7	4dd\	.	[4gg\	.
=13	=13	=13	=13	=13	=13	=13
2c\	.	.	4e/	.	4gg\]	.
.	.	.	2cc\	.	4ee\	.
[4F\	.	.	.	.	4aa\	.
=14	=14	=14	=14	=14	=14	=14
4F\]	.	4#| 2	2dd\	.	4bn\	.
2E\	.	7	.	.	2gg\	.
.	.	6	[4cc\	.	.	.
=15	=15	=15	=15	=15	=15	=15
2D\	.	7	4cc\]	.	4aa\	.
.	.	.	4ff\	.	4dd\	.
4G\	.	7 n	4dd\	.	4bbn\	.
=16	=16	=16	=16	=16	=16	=16
4C/	.	.	[2.ee\	.	4ccc\	.
4D\	.	7 4 2	.	.	4cc\	.
4E\	.	6	.	.	4gg\	.
=17	=17	=17	=17	=17	=17	=17
4AA/	.	6 5	4ee\]	.	2ff\	.
4BBn/	.	5	2dd\	.	.	.
4C/	.	9	.	.	[4ee\	.
=18	=18	=18	=18	=18	=18	=18
4F\	.	7 5	2cc\	.	4ee\]	.
4G\	.	5 4	.	.	2dd\	.
4GG/	.	n	4bn\	.	.	.
!!LO:LB:g=original
=19	=19	=19	=19	=19	=19	=19
2.C/	.	.	2.cc\	.	2.cc\	.
=20:|!|:	=20:|!|:	=20:|!|:	=20:|!|:	=20:|!|:	=20:|!|:	=20:|!|:
2.r	.	.	2.r	.	8r	.
.	.	.	.	.	8cc\	.
.	.	.	.	.	8cc\L	.
.	.	.	.	.	8dd\	.
.	.	.	.	.	8ee\	.
.	.	.	.	.	8ee\J	.
=21	=21	=21	=21	=21	=21	=21
*>B	*>B	*>B	*>B	*>B	*>B	*>B
2.r	.	.	2.r	.	8ee\L	.
.	.	.	.	.	8dd\	.
.	.	.	.	.	8dd\	.
.	.	.	.	.	8ee\	.
.	.	.	.	.	8ff\	.
.	.	.	.	.	8gg\J	.
=22	=22	=22	=22	=22	=22	=22
2.r	.	.	8r	.	4cc\	.
.	.	.	8f/	.	.	.
.	.	.	8f/L	.	[2ff\	.
.	.	.	8g/	.	.	.
.	.	.	8a/	.	.	.
.	.	.	8a/J	.	.	.
=23	=23	=23	=23	=23	=23	=23
2.r	.	.	8a/L	.	4ff\]	.
.	.	.	8g/	.	.	.
.	.	.	8g/	.	2ee\	.
.	.	.	8a/	.	.	.
.	.	.	8b-y/	.	.	.
.	.	.	8cc/J	.	.	.
=24	=24	=24	=24	=24	=24	=24
8r	.	.	8f/L	.	2aa\	.
8c\	.	.	8cc/	.	.	.
8c\L	.	.	8a/	.	.	.
8d\	.	.	8bn/J	.	.	.
8e\	.	6	[4cc\	.	4gg\	.
8e\J	.	.	.	.	.	.
=25	=25	=25	=25	=25	=25	=25
8e\L	.	4 2	4cc\]	.	2ff\	.
8d\	.	.	.	.	.	.
8d\	.	6#/	2bn\	.	.	.
8e\	.	.	.	.	.	.
8f\	.	6 4	.	.	4dd\	.
8g\J	.	.	.	.	.	.
=26	=26	=26	=26	=26	=26	=26
4c\	.	.	4cc\	.	4ee\	.
8A\L	.	.	4r	.	[2ccc\	.
8G\	.	.	.	.	.	.
8F\	.	.	4aa\	.	.	.
8E\J	.	.	.	.	.	.
=27	=27	=27	=27	=27	=27	=27
4D\	.	7	4ff\	.	4ccc\]	.
8G\L	.	.	4d/	.	[2bb-y\	.
8F\	.	.	.	.	.	.
8E\	.	.	4gg\	.	.	.
8D\J	.	.	.	.	.	.
!!LO:LB:g=original
=28	=28	=28	=28	=28	=28	=28
4C/	.	7	4ee\	.	4bb-y\]	.
8F\L	.	.	4c/	.	[2aa\	.
8E\	.	.	.	.	.	.
8D\	.	.	4ff\	.	.	.
8C\J	.	.	.	.	.	.
=29	=29	=29	=29	=29	=29	=29
4BB-y/	.	7	4dd\	.	4aa\]	.
8E/L	.	.	4B-y/	.	[2gg\	.
8D/	.	.	.	.	.	.
8C/	.	.	4ee\	.	.	.
8BB-y/J	.	.	.	.	.	.
=30	=30	=30	=30	=30	=30	=30
4AA/	.	7	4cc\	.	4gg\]	.
8D/L	.	.	4A/	.	[2ff\	.
8C/	.	.	.	.	.	.
8BB-y/	.	.	4dd\	.	.	.
8AA/J	.	.	.	.	.	.
=31	=31	=31	=31	=31	=31	=31
4GG/	.	7	4b-y\	.	4ff\]	.
8G\L	.	6	4G/	.	4ee\	.
8E\	.	.	.	.	.	.
8F\	.	6 4	4b-y\	.	4dd\	.
8G\J	.	.	.	.	.	.
=32	=32	=32	=32	=32	=32	=32
8A\L	.	#	4e/	.	4cc#X\	.
8G\	.	.	.	.	.	.
8F\	.	6	4f/	.	4aa\	.
8A\	.	.	.	.	.	.
8B-y\	.	.	4ff\	.	4dd\	.
8A\J	.	.	.	.	.	.
=33	=33	=33	=33	=33	=33	=33
8G\L	.	.	2.gg\	.	(4bb-y\	.
8F\	.	.	.	.	.	.
8E\	.	.	.	.	4gg\)	.
8D\	.	.	.	.	.	.
8C#y\	.	5	.	.	4ee\	.
8BBn\J	.	.	.	.	.	.
=34	=34	=34	=34	=34	=34	=34
4.AA/	.	7 #	2gg\	.	(4cc#X\	.
.	.	.	.	.	4a/)	.
8A\	.	.	.	.	.	.
8B-y\L	.	5	4ff\	.	[4dd\	.
8A\J	.	.	.	.	.	.
=35	=35	=35	=35	=35	=35	=35
4G\	.	6 5	2.ee\	.	4dd\]	.
4A\	.	#	.	.	2cc#X\	.
4AA/	.	.	.	.	.	.
=36	=36	=36	=36	=36	=36	=36
4.D\	.	.	8dd\L	.	2.dd\	.
.	.	.	8ff\	.	.	.
.	.	.	8ff\	.	.	.
8E\	.	.	8gg\	.	.	.
4F\	.	.	8aa\	.	.	.
.	.	.	8aa\J	.	.	.
!!LO:LB:g=original
=37	=37	=37	=37	=37	=37	=37
4C/	.	6 4	8aa\L	.	2.r	.
.	.	5 3	8gg\	.	.	.
2E\	.	6	8gg\	.	.	.
.	.	.	8aa\	.	.	.
.	.	.	8bb-y\	.	.	.
.	.	.	8ccc\J	.	.	.
=38	=38	=38	=38	=38	=38	=38
2.A\	.	6	4ff\	.	8r	.
.	.	.	.	.	8ff\	.
.	.	.	4aa\	.	8ff\L	.
.	.	.	.	.	8gg\	.
.	.	.	[4ff\	.	8aa\	.
.	.	.	.	.	8aa\J	.
=39	=39	=39	=39	=39	=39	=39
4B-y\	.	7	4ff\]	.	8aa\L	.
.	.	6	.	.	8gg\	.
4c\	.	.	4ee\	.	8gg\	.
.	.	.	.	.	8aa\	.
4E\	.	.	4gg\	.	8bb-y\	.
.	.	.	.	.	8ccc\J	.
=40	=40	=40	=40	=40	=40	=40
8r	.	.	8aa\L	.	4ff\	.
8F\	.	.	8a\	.	.	.
8F\L	.	.	8a\	.	4aa\	.
8G\	.	.	8b-y\	.	.	.
8A\	.	6	8cc\	.	[4ff\	.
8A\J	.	.	8cc\J	.	.	.
=41	=41	=41	=41	=41	=41	=41
8A\L	.	.	8cc/L	.	4ff\]	.
8G\	.	.	8b-y/	.	.	.
8G\	.	6	8b-y/	.	2ee\	.
8A\	.	.	8a/J	.	.	.
8B-y\	.	6 4	4g/	.	.	.
8c\J	.	.	.	.	.	.
=42	=42	=42	=42	=42	=42	=42
2.F\	.	.	4a/	.	8ff\L	.
.	.	.	.	.	8aa\	.
.	.	.	4r	.	(8aa\	.
.	.	.	.	.	8gg\	.
.	.	.	4r	.	8ff\)	.
.	.	.	.	.	8ee\J	.
=43	=43	=43	=43	=43	=43	=43
4BB-y/	.	.	2.r	.	8dd\L	.
.	.	.	.	.	8bb-y\	.
2GG/	.	.	.	.	(8bb-y\	.
.	.	.	.	.	8aa\	.
.	.	.	.	.	8gg\)	.
.	.	.	.	.	8ff\J	.
=44	=44	=44	=44	=44	=44	=44
2.C/	.	.	8r	.	8ee\L	.
.	.	.	8aa\	.	8ccc\	.
.	.	.	(8aa\L	.	(8ccc\	.
.	.	.	8gg\	.	8bb-y\	.
.	.	.	8ff\)	.	8aa\)	.
.	.	.	8ee\J	.	8gg\J	.
=45	=45	=45	=45	=45	=45	=45
4D\	.	.	8dd\L	.	8ff\L	.
.	.	.	8bb-y\	.	8ddd\	.
2GG/	.	.	(8bb-y\	.	(8ddd\	.
.	.	.	8aa\	.	8ccc\	.
.	.	.	8gg\)	.	8bb-y\)	.
.	.	.	8ff\J	.	8aa\J	.
!!LO:LB:g=original
=46	=46	=46	=46	=46	=46	=46
4C/	.	.	4ee\	.	4gg\	.
4F\	.	.	[2aa\	.	4r	.
4E\	.	4 2	.	.	4ccc\	.
=47	=47	=47	=47	=47	=47	=47
4D\	.	6 5	4aa\]	.	2bb-y\	.
4E\	.	5	2gg\	.	.	.
4F\	.	9	.	.	[4aa\	.
=48	=48	=48	=48	=48	=48	=48
4B-y\	.	7 5	2ff\	.	4aa\]	.
4c\	.	5 4	.	.	2gg\	.
4C/	.	3	4ee\	.	.	.
=49	=49	=49	=49	=49	=49	=49
2.F\	.	.	2.ff\	.	2.ff\	.
=50	=50	=50	=50	=50	=50	=50
[2.c\	p	5 3	4ee\	p	4gg\	p
.	.	6-r 4	4ff\	.	4aa-X\	.
.	.	5 3	4ee\	.	4gg\	.
=51	=51	=51	=51	=51	=51	=51
2.c\]	.	6-r 4	2ff\	.	2aa-X\	.
.	.	5 3	4ee\	.	4gg\	.
=52	=52	=52	=52	=52	=52	=52
4F\	.	.	2ff\	.	4aa-X\	.
4D-X\	.	6	.	.	(8bb-y\L	.
.	.	.	.	.	8aa-X\)	.
4BB-y/	.	6 -	(8bb-y\L	.	(8gg\	.
.	.	.	8aa-X\J)	.	8ff\J)	.
=53	=53	=53	=53	=53	=53	=53
4C/	.	.	4gg\	.	(8ee\L	.
.	.	.	.	.	8dd\J)	.
4E\	.	6	4g/	.	4cc\	.
4AA/	.	6	[4an/	.	4ff\	.
=54	=54	=54	=54	=54	=54	=54
4D\	.	6 5	4a/]	.	2b-y\	.
4E\	.	5	2g/	.	.	.
4F\	.	9	.	.	[4a/	.
=55	=55	=55	=55	=55	=55	=55
4B-y\	.	7 5	2f/	.	4a/]	.
4c\	.	5 4	.	.	2g/	.
4C/	.	3	4e/	.	.	.
=56	=56	=56	=56	=56	=56	=56
2.FF/;	.	.	2.f/;	.	2.f/;	.
=:|!	=:|!	=:|!	=:|!	=:|!	=:|!	=:|!
*-	*-	*-	*-	*-	*-	*-
!!!SMS: RV 69 / Estienne Roger (No. 363), Amsterdam [facs.]
!!!ENC: Fran Bennion
!!!END: 2004/10/06
!!!ONB: Converted from MuseData with musedata2hum on Fri Apr 19 13:10:04 2024
!!!YEM: (C) 2004, 2004 Center for Computer Assisted Research in the Humanities.
!!!system-decoration: [(s1,s2,s3)]
!!!URL-pdf: https://pdf.musedata.org/vivaldi-op01-no05.pdf#page=3 MuseData edition
!!!URL-pdf: https://s9.imslp.org/files/imglnks/usimg/1/18/IMSLP280399-PMLP10351-Vivaldi_Sonatas_Op_1_-_Violino_Primo.pdf#page=9 Violino primo part, Amsterdam: Estienne Roger, n.d.(ca.1723). Plate 363.
!!!URL-pdf: https://s9.imslp.org/files/imglnks/usimg/d/d5/IMSLP280400-PMLP10351-Vivaldi_Sonatas_Op_1_-_Violino_Secondo.pdf#page=8 Violino secondo part, Amsterdam: Estienne Roger, n.d.(ca.1723). Plate 363.
!!!URL-pdf: https://s9.imslp.org/files/imglnks/usimg/8/89/IMSLP280401-PMLP10351-Vivaldi_Sonatas_Op_1_-_Organo_e_Violoncello.pdf#page=8 Organo e Violoncello parts, Amsterdam: Estienne Roger, n.d.(ca.1723). Plate 363.
!!!URL-youtube: https://www.youtube.com/watch?v=P5HHPe_W6Uo&t=1141s L'Arte dell'Arco
!!!title: @{OTL}, mvmt. @{OMV}
!!!EEV: 2024/04/18
!!!source-file: https://bitbucket.org/musedata/vivaldi/src/master/roger/op1/rv069_05/stage2/03/01
!!!source-file: https://bitbucket.org/musedata/vivaldi/src/master/roger/op1/rv069_05/stage2/03/02
!!!source-file: https://bitbucket.org/musedata/vivaldi/src/master/roger/op1/rv069_05/stage2/03/03
!!!source-file: https://bitbucket.org/musedata/vivaldi/src/master/roger/op1/rv069_05/stage2/03/04
